X:4
T:Mon desir
T:(Basse dansse 10)
C:Tielman Susato
S:Tileman Susato: Danserye (1551)
R:Basse dance
M:C
L:1/4
T:Bassus
K:C bass
%%MIDI transpose -24
c4A2d2|c3BA2G2|d6d2|c4z4|G4G2c2|F4F2G2|F2A2G4|c4z4:|
%
|:A6A2|e4z2c2|f2c2d4|G4z4::z2d2A2e2|A4e4|z2A2A2e2|A4e4|
%
z2A2A2e2|A4e4|z2f2c2d2|G4c4::z4c4|c2c2F4|F2F2G4|G4c4:|
